X:1
T:Title
%%score { ( 1 3 ) | ( 2 4 ) }
L:1/8
M:4/4
K:Bb
V:1 treble nm="Grand Piano"
V:3 treble 
V:2 bass 
V:4 bass 
V:1
 z4 z2[Q:1/4=106] [B,D]>[CE] | [DF]2 [Fd]2 [EF]2 [Ec]2 | [DB]2 [DB]4 [DA]>[DB] | c2 B2 G2 B2 | %4
[M:3/4] F6 |[M:1/4] F>F |[M:4/4] F2 e2 A2 c2 | B2 d4 d>d | [=Ec]2 [DEB]2 [CEA]2 G2 |[M:3/4] c6 | %10
[M:1/4] D>[CE] |[M:4/4] [DF]2 [Fd]2 [EF]2 [Ec]2 | [DB]2 [DB]4 [DB]>[DA] | [EG]2 [FA]2 [GB]2 [EG]2 | %14
 [DF]6 [DF]>[DF] | [EG]2 [FA]2 [FB]2 c2 | d2 e2 f2 [Ge]2 | z4 c4 |[M:3/4] [DB]6 |[M:1/4] [DF]2 | %20
[M:4/4] [Fd]2 [DB]2 A2 c2 | B6[K:bass] z2 | [B,DF]2 [B,FB]2 [B,FA]2 G2 | F6 z2 | %24
 e2 [FA]2 [FB]2 [Fc]2 | d2- [Ed-]2 [Dd]2 [Fd][Fd] | [Fc]2 [D=EB]2 [CEA]2 B2 | c6 z2 | %28
 [Fd]2 [DB]2 A2 c2 | B6 z2 | [B,EG]2 [B,FA]2 [B,GB]2 [Gc]2 | d6 z2 | [Gc]2 B2 A2 G2 | %33
[M:9/8] F2 B- B d2- de>d |[M:4/4] [=Ed]4 [_Ec]4 |[M:3/4] B6 |] %36
V:2
 z4 z2 [B,,F,]>[B,,F,] | [B,,B,]2 [B,,B,]2 [F,A,]2 [F,A,]2 | [B,,B,]2 [B,,F,]4 [B,,F,]>[B,,F,] | %3
 [E,G,E]2 [E,G,E]2 [E,B,E]2 [G,B,E]2 |[M:3/4] [B,D]6 |[M:1/4] [B,D]>[B,D] | %6
[M:4/4] [F,A,E]2 [F,A,F]2 [F,CE]2 [^F,A,E]2 | [G,B,D]2 [G,B,D]4 [G,B,D]>[G,B,D] | %8
 [C,B,]2 C,2 C,2[K:treble] [B,C=E]2 |[M:3/4] [A,CF]2[K:bass] [G,B,]2 [F,A,]2 | %10
[M:1/4] [B,,B,]>[B,,B,] |[M:4/4] [B,,B,]2 [B,,B,]2 [F,A,]2 [F,A,]2 | %12
 [B,,B,]2 [B,,F,]4 [B,,B,]>[B,,B,] | [E,B,]2 [E,B,]2 [E,E]2 [E,B,]2 | [B,,B,]6 [B,,B,]>[B,,B,] | %15
 [E,B,]2 [E,C]2 [D,B,]2[K:treble] [F,A,F]2 | [B,F]2 [B,CF]2 [B,DF]2[K:bass] [E,B,]2 | [F,B,F]4 E4 | %18
[M:3/4] [B,,F,]6 |[M:1/4] [B,,B,]2 |[M:4/4] [B,,B,]2 [B,,F,]2 [F,E]2 [F,A,E]2 | z2 G,2 F,2 B,,B,, | %22
 B,,2 D,2 E,2 [G,B,E]2 | [B,D]2 [F,A,]2 [B,,B,]2 [B,D]2 | [F,A,F]2 [E,C]2 [D,B,]2 [C,A,]2 | %25
 B,2 G,2 F,2 [B,,B,][B,,B,] | [C,A,]2 C,2 C,2[K:treble] [G,C=E]2 | %27
 [A,CF]2[K:bass] [G,B,]2 [F,A,]2 [F,A,]2 | [B,,B,]2 [B,,F,]2 [F,E]2 [F,A,E]2 | z2 G,2 F,2 B,,B,, | %30
 E,2 E,2 E,2 [E,G,]2 | A,2 _A,2 =A,2 [D,A,]2 | [E,G,]2 [E,G,E]2 [=E,B,_D]2 [E,B,D]2 | %33
[M:9/8] [F,B,D]2[K:treble] [G,B,D]- [G,B,D] [G,=B,F]2- [G,B,F][G,B,F]>[G,B,F] | %34
[M:4/4][K:bass] [C,B,]4 [F,A,]4 |[M:3/4] z2 G,2 F,2 |] %36
V:3
 x8 | x8 | x8 | x8 |[M:3/4] x6 |[M:1/4] x2 |[M:4/4] x8 | x8 | x8 |[M:3/4] z2 =E2 _E2 |[M:1/4] x2 | %11
[M:4/4] x8 | x8 | x8 | x8 | x8 | x8 | d4 z2 F,2 |[M:3/4] x6 |[M:1/4] x2 |[M:4/4] x8 | %21
 [B,D]2 E2 D2[K:bass] [F,B,D][F,CE] | x8 | z2 E2 D2 F2 | x8 | F2 z2 z4 | x8 | z2 =E2 _E2 F2 | x8 | %29
 [B,D]2 E2 D2 [B,DB][B,DA] | x8 | ^F2 =F2 ^F2 [Fd]2 | x8 |[M:9/8] x9 |[M:4/4] x8 | %35
[M:3/4] [B,D]2 E2 D2 |] %36
V:4
 x8 | x8 | x8 | x8 |[M:3/4] x6 |[M:1/4] x2 |[M:4/4] x8 | x8 | x6[K:treble] x2 | %9
[M:3/4] x2[K:bass] x4 |[M:1/4] x2 |[M:4/4] x8 | x8 | x8 | x8 | x6[K:treble] x2 | x6[K:bass] x2 | %17
 z4 [F,A,]2 z2 |[M:3/4] x6 |[M:1/4] x2 |[M:4/4] x8 | B,,6 z2 | x8 | x8 | x8 | B,,6 z2 | %26
 x6[K:treble] x2 | x2[K:bass] x6 | x8 | B,,6 z2 | x8 | D,6 z2 | x8 |[M:9/8] x2[K:treble] x7 | %34
[M:4/4][K:bass] x8 |[M:3/4] B,,6 |] %36

